!!!Rep U0181
!!!Isim(Name): Felek Vazgeçmiyor Bender
!!!Yore(Region): Şanlıurfa
!!!Makam: Hüseyni
!!!Donanim(Key Signature): b-2
!!!Usul: 10/8, Serbest
**kern	**Dcent
*staff1	*.
=1-	=1-
*clefG2	*.
*k[b-]	*.
*M10/8	*.
4dd	0
8gg	0
8gg	0
8ff#	50
8ff#	50
8ee	0
8gg	0
8gg	0
8ff#	50
=2	=2
8ff#	50
8ee	0
8gg	0
8gg	0
8ff#	50
8ff#	50
8ee	0
16ee	0
16ffn	0
16ee	0
16ff	0
8dd	0
=3:!	=3:!
!!linebreak:default
4dd	0
8ee	0
8ee	0
8dd	0
8dd	0
8cc	0
8ee	0
8ee	0
8dd	0
=4	=4
16dd	0
16cc	0
8dd	0
8ee	0
8ee	0
8dd	0
8dd	0
8cc	0
16cc	0
16dd	0
16cc	0
16dd	0
8b-	50
=5	=5
!!linebreak:default
4b-	50
8dd	0
8dd	0
8cc	0
8cc	0
8b-	50
8dd	0
8dd	0
8cc	0
=6	=6
8cc	0
8b-	50
8dd	0
8dd	0
8cc	0
8cc	0
8b-	50
16b-	50
16cc	0
16b-	50
16cc	0
8a	0
=7	=7
!!linebreak:default
4a	0
8cc	0
8cc	0
8b-	50
8b-	50
8a	0
8cc	0
8cc	0
8b-	50
=8	=8
8b-	50
8a	0
8cc	0
8cc	0
8b-	50
8b-	50
8a	0
4.a	0
=9	=9
!!linebreak:default
*MX/X	*.
16eeQ	0
16ff#Q	0
16ggQ	0
16ff#Q	0
16aaQ	0
16ggQ	0
4ggQ;	0
*-	*-
!! Uzun Hava Humdrum Bilgi Bankasi (Uzun Hava Humdrum Database)
!! 
!! Sertan Senturk, Parag Chordia & Erdal Tugcular
!! Georgia Tech Center for Music Technology, 2011
